templates/main/source/images/folder.svg

<?xml version="1.0" encoding="utf-8"?>
<svg width="16px" height="14px" viewBox="0 0 16 14" version="1.1" xmlns:xlink="http://www.w3.org/1999/xlink" xmlns="http://www.w3.org/2000/svg">
  <desc>Created with Lunacy</desc>
  <path d="M12 0L4 0C3.81591 0 3.64343 0.0497461 3.49528 0.136529C3.34713 0.223312 3.22331 0.347133 3.13653 0.495281C3.04975 0.643429 3 0.815905 3 1L13 1C13 0.815905 12.9503 0.643429 12.8635 0.495281C12.7767 0.347133 12.6529 0.223312 12.5047 0.136529C12.3566 0.0497461 12.1841 0 12 0ZM2.5 2L13.5 2C13.6841 2 13.8566 2.04975 14.0047 2.13653C14.1529 2.22331 14.2767 2.34713 14.3635 2.49528C14.4503 2.64343 14.5 2.81591 14.5 3L1.5 3C1.5 2.81591 1.54975 2.64343 1.63653 2.49528C1.72331 2.34713 1.84713 2.22331 1.99528 2.13653C2.14343 2.04975 2.31591 2 2.5 2ZM14.2053 4L1.79472 4C1.17066 4 0.944356 4.06498 0.716208 4.18699C0.48806 4.30901 0.309008 4.48806 0.186993 4.71621C0.0649779 4.94436 0 5.17066 0 5.79472L0 12.2053C0 12.8293 0.0649779 13.0556 0.186993 13.2838C0.309008 13.5119 0.48806 13.691 0.716208 13.813C0.944356 13.935 1.17066 14 1.79472 14L14.2053 14C14.8293 14 15.0556 13.935 15.2838 13.813C15.5119 13.691 15.691 13.5119 15.813 13.2838C15.935 13.0556 16 12.8293 16 12.2053L16 5.79472C16 5.17066 15.935 4.94436 15.813 4.71621C15.691 4.48806 15.5119 4.30901 15.2838 4.18699C15.0556 4.06498 14.8293 4 14.2053 4Z" id="Style" fill="#8C0014" fill-rule="evenodd" stroke="none" />
</svg>

<svg width="16" height="14" viewBox="0 0 16 14" xmlns:xlink="http://www.w3.org/1999/xlink" xmlns="http://www.w3.org/2000/svg"><path d="M12 0H4a.995.995 0 00-.863.495A.995.995 0 003 1h10a.995.995 0 00-.495-.863A.995.995 0 0012 0zM2.5 2h11a.995.995 0 01.864.495c.086.148.136.32.136.505h-13a.995.995 0 01.495-.863A.995.995 0 012.5 2zm11.705 2H1.795c-.624 0-.85.065-1.079.187a1.272 1.272 0 00-.529.53C.065 4.943 0 5.17 0 5.794v6.41c0 .624.065.85.187 1.079.122.228.301.407.53.529.227.122.454.187 1.078.187h12.41c.624 0 .85-.065 1.079-.187a1.27 1.27 0 00.529-.53c.122-.227.187-.454.187-1.078v-6.41c0-.624-.065-.85-.187-1.079a1.272 1.272 0 00-.53-.529C15.057 4.065 14.83 4 14.206 4z" id="Style" fill="#8C0014" fill-rule="evenodd" stroke="none"/></svg>
